X:1
T:Title
L:1/8
M:4/4
I:linebreak $
K:G
V:1 treble nm="Voice"
V:1
"Em" EFGF EFGF | EFGA B2 AB | cBAG"D" F2 GA |"Em" BAGB"D" F4 |"Em" EFGF EFGF | EFGA B2 AB | %6
 cBAG"D" FBGF |"Em" EG"D"FD"Em" E4 ::"Em" eAAe dcBc |"D" dGGd cBAG | FGAc BAGF | GFGA"Em" B2 cd | %12
"Em" eAAe dcBc |"D" dGGd cBAG | FGAc BAGF |"Em" GA"D"FG"Em" E4 :| %16
